X:1
T:Do you hear the people sing
T:Do You Hear The People Sing
T:Music by Claude-Michel Schönberg
T:Lyrics by Alain Boublil
T:Les Mis
T:Les Mis
C:idk som dude
Z:Les Mis
L:1/8
Q:1/4=76
M:4/4
K:F
V:1 treble nm="Alto" snm="A."
V:1
"F""^Slow march" z8 | z4 z2 A>G | F>G A>B c2 (3AGF |"Bb/F" E>D E>F"F" C2 (3DCB, | %4
w: |Do you|hear the peo- ple sing? Sing- ing the|song of an- gry men. It is the|
"Dm" A,>C F>A"G/D" G>^F G>D |"C" F>E E>F G z A>G |"F" F>G A>B c2 (3AGF | %7
w: mu- sic of a peo- ple who will|not be slaves a- gain! When the|beat- ing of your heart ech- oes the|
"Bb/F" E>D E>F"F" C2"F/E" (3DCB, |"Dm" A,>C F>A"Gm" (3G^FG"C7" B>E |"F" F6"E7" E>E | %10
w: beat- ing of the drums, there is a|life a- bout to start when to- mor- row|comes Will you|
[K:C]"Am" A>^G A>B c>B A>c |"Em" B>A G>A B2 z c |"Dm" d>c B>c d>c B>d | %13
w: join in our cru- sade? Who will be|strong and stand with me? Be-|ond the bar- ri- cade, is there a|
"Am" c>B- (3BAB c z"Am/G" z3/2 A/ |"F" (3cBA"Fmaj7" (3cBA"F6" (3cBA"Dm7" (3cBc |"G" d6 e>d | %16
w: world you _ long to see? Then|join in the fight that will give you the right to be|free! Do you|
"C" c>d e>f g2 (3edc |"F/C" B>A B>c"C" G2 (3AGF |"Am" E>G c>e"D7" d>^c d>A |"G7" c>B B>c d2 e>d | %20
w: hear the peo- ple sing? Sing ing the|song of an- gry men? It is the|mu- sic of a peo- ple who will|not be slaves again! * When the|
"C" c>d e>f g2 (3edc |"F/C" B>A B>c G2 (3AGF |"Am" E>G c>e"Dm7" (3d^cd"G7" f>B |"C" c6"E7" E>E | %24
w: beat- ing of your heart ech- oes the|beat- ing of the drums There is a|life a- bout to start when to- mor- row|comes! Will you|
"Am" A>^G A>B c>B A>c |"Em" B>A G>A B2 Bc |"Dm" d>c B>c d>c B>d |"Am" c>B- (3BAB c2 z3/2 A/ | %28
w: give all you can give so that our|ban- ner may ad- vance? Some will|fall and some will live, will you stand|up and _ take your chance the|
"F" (3cBA"Fmaj7" (3cBA"F6" (3cBA"Dm7" (3cBc |"G" d6 e>d |"C" c>d e>f g2 (3edc | %31
w: blood of our mar- tyrs will wat- er the mea- dows of|France! Do you|hear the peo- ple sing? Sing ing the|
"F/C" B>A B>c"C" G2 (3AGF |"Am" E>G c>e"D7" d>^c d>A |"G7" c>B B>c d2 e>d |"C" c>d e>f g2 (3edc | %35
w: song of an- gry men? It is the|mu- sic of a peo- ple who will|not be slaves a- gain When the|beat- ing of your heart ech- oes the|
"F/C" B>A B>c G2 (3AGF |"Am" E>G c>e"Dm7" (3d^cd"G7" f>B |[M:5/4]"C" c8 z2 |"Cm" z10 |"Abm/C" z10 | %40
w: beat- ing of the drums, There is a|life a- bout to start when to- mor- row|comes!|||
[M:4/4]"C" z8 | z8 |] %42
w: ||

